X:9987
T:Lndler Slg. Happurg 84 d
S:M.Kellner, Rgensburg
Z:abc transcription Simon Wascher
N:please mail errors to simon.wascher@chello.at
M:3/4
L:1/4
K:G
|:B/A/B/|cA/c/B/A/|BG/B/A/G/|FA/F/D/F/|G/F/G/A/B|
cA/c/B/A/|BG/B/A/G/|FA/F/D/F/|G2:|
